X:164
T:Go to Berwick Johnnie
Z:Jack Campin, http://www.campin.me.uk/
F:Jack Campin's Nine-Note Tunebook
% last edit 03-02-2013
S:Northumbrian Minstrelsy
M:3/2
L:1/8
Q:1/2=132
K:C
   G2C2 C2G2 AGFE|G2C2 C2G2 E2c2 |
   G2C2 C2G2 AGFE|G2D2 D2E2 F2A2:|
   c3 d c2C2 EFGE|c3 d c2C2 E2G2 |
[1 c3 d c2C2 EFGE|A2d2 d2D2 F2A2:|
[2 c3 d edcB cBAG|A2d2 d2D2 F2A2|]

